img/icons/clients/client-4.svg

<svg width="170" height="92" viewBox="0 0 170 92" fill="none" xmlns="http://www.w3.org/2000/svg">
<rect x="0.5" y="0.5" width="169" height="91" rx="3.5" stroke="#AFB1B8"/>
<path d="M56.1462 37.1028H56.1433C53.7453 37.1028 51.8013 38.8304 51.8013 40.9615V40.964C51.8013 43.0951 53.7453 44.8227 56.1433 44.8227H56.1462C58.5442 44.8227 60.4882 43.0951 60.4882 40.964V40.9615C60.4882 38.8304 58.5442 37.1028 56.1462 37.1028Z" fill="#AFB1B8"/>
<path d="M88.195 35.8693C88.1882 32.9093 86.8623 30.0722 84.5074 27.979C82.1525 25.8857 78.9604 24.7067 75.6297 24.7V24.7C72.298 24.7053 69.1045 25.8837 66.7484 27.9772C64.3922 30.0706 63.0655 32.9084 63.0587 35.8693V52.1921C63.0587 52.1921 88.1922 49.7044 88.195 35.8718V35.8693Z" fill="#AFB1B8"/>
<path d="M43 57.5495C43.006 59.6091 43.9291 61.5828 45.5676 63.0394C47.2061 64.496 49.4267 65.317 51.7442 65.3231C54.0612 65.317 56.2814 64.4963 57.9197 63.0403C59.5581 61.5843 60.4816 59.6112 60.4884 57.552V46.1943C60.4884 46.1943 43 47.9266 43 57.5495ZM51.7442 59.5844C51.2913 59.5844 50.8486 59.4651 50.472 59.2415C50.0955 59.0179 49.802 58.7001 49.6287 58.3282C49.4554 57.9564 49.41 57.5472 49.4984 57.1525C49.5867 56.7577 49.8048 56.3951 50.125 56.1105C50.4453 55.8259 50.8533 55.6321 51.2975 55.5536C51.7416 55.4751 52.202 55.5154 52.6205 55.6694C53.0389 55.8234 53.3965 56.0843 53.6481 56.4189C53.8997 56.7535 54.034 57.147 54.034 57.5495C54.0351 57.8173 53.9767 58.0828 53.8622 58.3306C53.7476 58.5783 53.5791 58.8036 53.3664 58.9933C53.1536 59.1831 52.9008 59.3337 52.6224 59.4364C52.3441 59.5392 52.0456 59.5921 51.7442 59.5921V59.5844Z" fill="#AFB1B8"/>
<path d="M69.4177 58.4637H67.7302V60.2069H66.8513V55.9413H69.6286V56.6532H67.7302V57.7548H69.4177V58.4637ZM73.6423 58.1708C73.6423 58.5907 73.5681 58.9589 73.4196 59.2753C73.2712 59.5917 73.0583 59.8358 72.7809 60.0077C72.5056 60.1796 72.1891 60.2655 71.8317 60.2655C71.4782 60.2655 71.1628 60.1805 70.8854 60.0106C70.6081 59.8407 70.3932 59.5985 70.2409 59.2841C70.0886 58.9677 70.0114 58.6044 70.0095 58.1942V57.9833C70.0095 57.5634 70.0847 57.1942 70.235 56.8759C70.3874 56.5555 70.6013 56.3104 70.8766 56.1405C71.154 55.9686 71.4704 55.8827 71.8259 55.8827C72.1813 55.8827 72.4968 55.9686 72.7722 56.1405C73.0495 56.3104 73.2634 56.5555 73.4138 56.8759C73.5661 57.1942 73.6423 57.5624 73.6423 57.9803V58.1708ZM72.7516 57.9774C72.7516 57.5302 72.6716 57.1903 72.5114 56.9579C72.3513 56.7255 72.1227 56.6093 71.8259 56.6093C71.5309 56.6093 71.3034 56.7245 71.1432 56.955C70.9831 57.1835 70.902 57.5194 70.9001 57.9628V58.1708C70.9001 58.6063 70.9802 58.9442 71.1403 59.1844C71.3005 59.4247 71.5309 59.5448 71.8317 59.5448C72.1266 59.5448 72.3532 59.4296 72.5114 59.1991C72.6696 58.9667 72.7497 58.6288 72.7516 58.1854V57.9774ZM76.4929 59.0878C76.4929 58.9218 76.4343 58.7948 76.3171 58.7069C76.1999 58.6171 75.989 58.5233 75.6843 58.4257C75.3796 58.326 75.1384 58.2284 74.9606 58.1327C74.4763 57.871 74.2341 57.5184 74.2341 57.0751C74.2341 56.8446 74.2985 56.6395 74.4274 56.4598C74.5583 56.2782 74.7448 56.1366 74.987 56.035C75.2311 55.9335 75.5046 55.8827 75.8073 55.8827C76.112 55.8827 76.3835 55.9384 76.6218 56.0497C76.86 56.1591 77.0446 56.3143 77.1755 56.5155C77.3083 56.7167 77.3747 56.9452 77.3747 57.201H76.4958C76.4958 57.0057 76.4343 56.8544 76.3112 56.7469C76.1882 56.6376 76.0153 56.5829 75.7927 56.5829C75.5778 56.5829 75.4108 56.6288 75.2917 56.7206C75.1725 56.8104 75.113 56.9296 75.113 57.078C75.113 57.2167 75.1823 57.3329 75.321 57.4266C75.4616 57.5204 75.6677 57.6083 75.9391 57.6903C76.4391 57.8407 76.8034 58.0272 77.0319 58.2499C77.2604 58.4725 77.3747 58.7499 77.3747 59.0819C77.3747 59.451 77.235 59.7411 76.9557 59.952C76.6765 60.161 76.3005 60.2655 75.8278 60.2655C75.4997 60.2655 75.2009 60.2059 74.9313 60.0868C74.6618 59.9657 74.4557 59.8007 74.3132 59.5917C74.1725 59.3827 74.1022 59.1405 74.1022 58.8651H74.9841C74.9841 59.3358 75.2653 59.5712 75.8278 59.5712C76.0368 59.5712 76.1999 59.5292 76.3171 59.4452C76.4343 59.3593 76.4929 59.2401 76.4929 59.0878ZM81.1833 56.6532H79.8766V60.2069H78.9977V56.6532H77.7087V55.9413H81.1833V56.6532ZM84.2536 58.3583H82.5661V59.5009H84.5466V60.2069H81.6872V55.9413H84.5407V56.6532H82.5661V57.6698H84.2536V58.3583ZM86.6413 58.6454H85.9411V60.2069H85.0622V55.9413H86.6472C87.1511 55.9413 87.5397 56.0536 87.8132 56.2782C88.0866 56.5028 88.2233 56.8202 88.2233 57.2303C88.2233 57.5214 88.1599 57.7645 88.0329 57.9598C87.9079 58.1532 87.7175 58.3075 87.4616 58.4227L88.3845 60.1659V60.2069H87.4411L86.6413 58.6454ZM85.9411 57.9335H86.6501C86.8708 57.9335 87.0417 57.8778 87.1628 57.7665C87.2839 57.6532 87.3444 57.4979 87.3444 57.3007C87.3444 57.0995 87.2868 56.9413 87.1716 56.826C87.0583 56.7108 86.8835 56.6532 86.6472 56.6532H85.9411V57.9335ZM91.2673 58.704V60.2069H90.3884V55.9413H92.0524C92.3727 55.9413 92.654 55.9999 92.8962 56.1171C93.1403 56.2343 93.3278 56.4012 93.4587 56.618C93.5895 56.8329 93.655 57.078 93.655 57.3534C93.655 57.7714 93.5114 58.1014 93.2243 58.3436C92.9391 58.5839 92.5436 58.704 92.0378 58.704H91.2673ZM91.2673 57.9921H92.0524C92.2849 57.9921 92.4616 57.9374 92.5827 57.828C92.7057 57.7186 92.7673 57.5624 92.7673 57.3593C92.7673 57.1503 92.7057 56.9813 92.5827 56.8524C92.4597 56.7235 92.2897 56.6571 92.0729 56.6532H91.2673V57.9921ZM96.8278 58.3583H95.1403V59.5009H97.1208V60.2069H94.2614V55.9413H97.1149V56.6532H95.1403V57.6698H96.8278V58.3583ZM100.906 56.6532H99.5993V60.2069H98.7204V56.6532H97.4313V55.9413H100.906V56.6532ZM103.976 58.3583H102.289V59.5009H104.269V60.2069H101.41V55.9413H104.263V56.6532H102.289V57.6698H103.976V58.3583ZM106.364 58.6454H105.664V60.2069H104.785V55.9413H106.37C106.874 55.9413 107.262 56.0536 107.536 56.2782C107.809 56.5028 107.946 56.8202 107.946 57.2303C107.946 57.5214 107.883 57.7645 107.756 57.9598C107.631 58.1532 107.44 58.3075 107.184 58.4227L108.107 60.1659V60.2069H107.164L106.364 58.6454ZM105.664 57.9335H106.373C106.593 57.9335 106.764 57.8778 106.885 57.7665C107.007 57.6532 107.067 57.4979 107.067 57.3007C107.067 57.0995 107.009 56.9413 106.894 56.826C106.781 56.7108 106.606 56.6532 106.37 56.6532H105.664V57.9335ZM110.829 59.0878C110.829 58.9218 110.77 58.7948 110.653 58.7069C110.536 58.6171 110.325 58.5233 110.02 58.4257C109.716 58.326 109.474 58.2284 109.297 58.1327C108.812 57.871 108.57 57.5184 108.57 57.0751C108.57 56.8446 108.634 56.6395 108.763 56.4598C108.894 56.2782 109.081 56.1366 109.323 56.035C109.567 55.9335 109.841 55.8827 110.143 55.8827C110.448 55.8827 110.719 55.9384 110.958 56.0497C111.196 56.1591 111.381 56.3143 111.511 56.5155C111.644 56.7167 111.711 56.9452 111.711 57.201H110.832C110.832 57.0057 110.77 56.8544 110.647 56.7469C110.524 56.6376 110.351 56.5829 110.129 56.5829C109.914 56.5829 109.747 56.6288 109.628 56.7206C109.508 56.8104 109.449 56.9296 109.449 57.078C109.449 57.2167 109.518 57.3329 109.657 57.4266C109.798 57.5204 110.004 57.6083 110.275 57.6903C110.775 57.8407 111.139 58.0272 111.368 58.2499C111.596 58.4725 111.711 58.7499 111.711 59.0819C111.711 59.451 111.571 59.7411 111.292 59.952C111.012 60.161 110.636 60.2655 110.164 60.2655C109.836 60.2655 109.537 60.2059 109.267 60.0868C108.998 59.9657 108.792 59.8007 108.649 59.5917C108.508 59.3827 108.438 59.1405 108.438 58.8651H109.32C109.32 59.3358 109.601 59.5712 110.164 59.5712C110.373 59.5712 110.536 59.5292 110.653 59.4452C110.77 59.3593 110.829 59.2401 110.829 59.0878Z" fill="#AFB1B8"/>
</svg>

<svg width="170" height="92" fill="none" xmlns="http://www.w3.org/2000/svg"><rect x=".5" y=".5" width="169" height="91" rx="3.5" stroke="#AFB1B8"/><path d="M56.146 37.103h-.003c-2.398 0-4.342 1.727-4.342 3.858v.003c0 2.131 1.944 3.859 4.342 3.859h.003c2.398 0 4.342-1.728 4.342-3.859v-.002c0-2.132-1.944-3.86-4.342-3.86ZM88.195 35.87c-.007-2.96-1.333-5.798-3.688-7.891-2.355-2.093-5.547-3.272-8.877-3.279-3.332.005-6.525 1.184-8.882 3.277-2.356 2.094-3.683 4.931-3.69 7.892v16.323s25.134-2.488 25.137-16.32v-.003ZM43 57.55c.006 2.06.93 4.033 2.568 5.49 1.638 1.456 3.859 2.277 6.176 2.283 2.317-.006 4.537-.827 6.176-2.283 1.638-1.456 2.562-3.429 2.568-5.488V46.194S43 47.927 43 57.55Zm8.744 2.034c-.453 0-.895-.119-1.272-.343a2.107 2.107 0 0 1-.843-.913 1.825 1.825 0 0 1-.13-1.175c.088-.395.306-.758.626-1.042.32-.285.728-.479 1.172-.557a2.558 2.558 0 0 1 1.324.115c.418.154.776.415 1.027.75.252.335.386.728.386 1.13.001.268-.057.534-.172.782a2.036 2.036 0 0 1-.496.662c-.212.19-.465.34-.744.443a2.539 2.539 0 0 1-.878.156v-.008ZM69.418 58.464H67.73v1.743h-.879V55.94h2.778v.712H67.73v1.102h1.688v.709Zm4.224-.293c0 .42-.074.788-.222 1.104-.149.317-.362.56-.64.733a1.755 1.755 0 0 1-.948.258c-.354 0-.67-.085-.947-.255a1.695 1.695 0 0 1-.644-.727 2.511 2.511 0 0 1-.231-1.09v-.21c0-.42.075-.79.225-1.108.152-.32.366-.566.642-.735.277-.172.593-.258.949-.258.355 0 .67.086.946.258.277.17.491.415.642.735.152.318.228.686.228 1.104v.19Zm-.89-.194c0-.447-.08-.787-.24-1.02a.783.783 0 0 0-.686-.348.782.782 0 0 0-.683.346c-.16.229-.241.564-.243 1.008v.208c0 .435.08.773.24 1.013.16.24.39.36.692.36a.775.775 0 0 0 .68-.345c.158-.232.238-.57.24-1.014v-.208Zm3.74 1.11a.447.447 0 0 0-.175-.38c-.117-.09-.328-.184-.633-.281a4.575 4.575 0 0 1-.723-.293c-.485-.262-.727-.615-.727-1.058 0-.23.065-.436.193-.615.131-.182.318-.323.56-.425.244-.101.518-.152.82-.152.305 0 .576.055.815.167.238.11.423.264.553.466.133.2.2.43.2.685h-.88c0-.195-.06-.347-.184-.454-.123-.11-.296-.164-.518-.164-.215 0-.382.046-.501.138a.426.426 0 0 0-.179.357c0 .139.07.255.208.349.14.093.347.181.618.263.5.15.864.337 1.093.56.228.222.343.5.343.832 0 .369-.14.66-.42.87-.278.209-.654.314-1.127.314-.328 0-.627-.06-.897-.18a1.438 1.438 0 0 1-.618-.494 1.27 1.27 0 0 1-.21-.727h.881c0 .47.281.706.844.706.209 0 .372-.042.49-.126a.418.418 0 0 0 .175-.357Zm4.691-2.434h-1.306v3.554h-.88v-3.554H77.71v-.712h3.474v.712Zm3.07 1.705h-1.687v1.143h1.98v.706h-2.859V55.94h2.854v.712h-1.975v1.017h1.688v.688Zm2.388.287h-.7v1.562h-.879V55.94h1.585c.504 0 .893.113 1.166.337.274.225.41.542.41.952 0 .291-.063.535-.19.73a1.282 1.282 0 0 1-.571.463l.922 1.743v.04h-.943l-.8-1.56Zm-.7-.712h.71c.22 0 .39-.055.512-.166a.607.607 0 0 0 .181-.466c0-.202-.057-.36-.172-.475-.114-.115-.288-.173-.525-.173h-.706v1.28Zm5.326.771v1.503h-.879V55.94h1.664c.32 0 .602.059.844.176.244.117.432.284.563.501.13.215.196.46.196.735 0 .418-.144.748-.43.99-.286.24-.681.361-1.187.361h-.77Zm0-.712h.785c.233 0 .41-.055.53-.164.124-.11.185-.266.185-.469a.704.704 0 0 0-.184-.507c-.123-.128-.293-.195-.51-.199h-.806v1.34Zm5.56.366H95.14v1.143h1.98v.706h-2.859V55.94h2.854v.712H95.14v1.017h1.688v.688Zm4.079-1.705h-1.307v3.554h-.879v-3.554h-1.289v-.712h3.475v.712Zm3.07 1.705h-1.687v1.143h1.98v.706h-2.859V55.94h2.853v.712h-1.974v1.017h1.687v.688Zm2.388.287h-.7v1.562h-.879V55.94h1.585c.504 0 .892.113 1.166.337.273.225.41.542.41.952 0 .291-.063.535-.19.73a1.284 1.284 0 0 1-.572.463l.923 1.743v.04h-.943l-.8-1.56Zm-.7-.712h.709c.22 0 .391-.055.512-.166.122-.114.182-.27.182-.466 0-.202-.058-.36-.173-.475-.113-.115-.288-.173-.524-.173h-.706v1.28Zm5.165 1.155a.448.448 0 0 0-.176-.381c-.117-.09-.328-.184-.633-.281a4.56 4.56 0 0 1-.723-.293c-.485-.262-.727-.615-.727-1.058 0-.23.064-.436.193-.615.131-.182.318-.323.56-.425.244-.101.518-.152.82-.152.305 0 .576.055.815.167.238.11.423.264.553.466.133.2.2.43.2.685h-.879c0-.195-.062-.347-.185-.454-.123-.11-.296-.164-.518-.164-.215 0-.382.046-.501.138a.424.424 0 0 0-.179.357c0 .139.069.255.208.349.141.093.347.181.618.263.5.15.864.337 1.093.56.228.222.343.5.343.832 0 .369-.14.66-.419.87-.28.209-.656.314-1.128.314-.328 0-.627-.06-.897-.18a1.444 1.444 0 0 1-.618-.494 1.268 1.268 0 0 1-.211-.727h.882c0 .47.281.706.844.706.209 0 .372-.042.489-.126a.419.419 0 0 0 .176-.357Z" fill="#AFB1B8"/></svg>
